icons/arrow-bar-in-right.svg

<svg xmlns="http://www.w3.org/2000/svg" width="24" height="24" viewBox="0 0 24 24">
  <path d="M21,2 C21.5128358,2 21.9355072,2.38604019 21.9932723,2.88337887 L22,3 L22,21 C22,21.5522847 21.5522847,22 21,22 C20.4871642,22 20.0644928,21.6139598 20.0067277,21.1166211 L20,21 L20,3 C20,2.44771525 20.4477153,2 21,2 Z M17.8135366,11.4182204 C17.8274737,11.4377852 17.8410808,11.4583066 17.8539326,11.4793398 C17.8622728,11.4928304 17.8701389,11.5064305 17.8776583,11.5201698 C17.8868931,11.5371537 17.8959557,11.5549095 17.9044938,11.5729619 C17.9140881,11.5932325 17.9226898,11.613165 17.930613,11.6333026 C17.9375547,11.6508514 17.9440997,11.6689468 17.9501291,11.6872762 C17.9551048,11.7025958 17.9598259,11.7182588 17.9641549,11.734007 C17.9701664,11.7555635 17.9753602,11.7772539 17.9798348,11.7992059 C17.9832978,11.8166247 17.9863719,11.834051 17.9889822,11.8515331 C17.9920941,11.8718856 17.994564,11.8929426 17.9963697,11.914189 C17.9978612,11.9321496 17.9988858,11.9495547 17.9994578,11.9669718 C17.9998151,11.9775981 18,11.9887775 18,12 L17.9964029,12.0850024 L17.9964029,12.0850024 L17.9889807,12.1489612 L17.9889807,12.1489612 C17.9863441,12.1661068 17.9832818,12.1834538 17.9797599,12.2007258 C17.9753602,12.2227461 17.9701664,12.2444365 17.964279,12.2658396 C17.9599023,12.2814633 17.9552713,12.2968513 17.9502619,12.3121425 C17.9438775,12.3317977 17.9366843,12.3515792 17.928896,12.3710585 L17.9063266,12.4232215 L17.9063266,12.4232215 C17.897529,12.4419547 17.8881407,12.4604898 17.8782035,12.4786822 C17.8701866,12.4935488 17.8613648,12.5087703 17.8521085,12.5238 C17.8384932,12.5456983 17.8245831,12.5664533 17.8099369,12.5866395 C17.8037205,12.5953343 17.7970905,12.6041603 17.7902954,12.6128994 C17.7848777,12.6197272 17.7826022,12.6225945 17.7803112,12.625449 L17.7071068,12.7071068 L12.0502525,18.363961 C11.6597282,18.7544853 11.0265633,18.7544853 10.636039,18.363961 C10.275555,18.0034771 10.2478255,17.436246 10.5528504,17.0439548 L10.636039,16.9497475 L14.585,12.9991458 L3,13 C2.44771525,13 2,12.5522847 2,12 C2,11.4871642 2.38604019,11.0644928 2.88337887,11.0067277 L3,11 L14.585,10.9991458 L10.636039,7.05025253 C10.2455147,6.65972824 10.2455147,6.02656326 10.636039,5.63603897 C10.9965229,5.27555501 11.563754,5.24782547 11.9560452,5.55285036 L12.0502525,5.63603897 L17.7071068,11.2928932 L17.777,11.371 L17.7833908,11.3784075 L17.779,11.374 L17.8135366,11.4182204 L17.8135366,11.4182204 Z"/>
</svg>

<svg xmlns="http://www.w3.org/2000/svg" viewBox="0 0 24 24">
  <path d="M21 2a1 1 0 0 1 1 .88V21a1 1 0 0 1-2 .12V3a1 1 0 0 1 1-1zm-3.19 9.42a1.04 1.04 0 0 1 .19.5 1.05 1.05 0 0 1 0 .08v.09l-.01.06a1.09 1.09 0 0 1-.06.22l-.02.05a1.02 1.02 0 0 1-.13.2l-.07.09-5.66 5.65a1 1 0 0 1-1.5-1.32l.09-.09L14.59 13H3a1 1 0 0 1-.12-2H14.6l-3.95-3.95a1 1 0 0 1 1.32-1.5l.09.09 5.66 5.65.07.08.03.05z"/>
</svg>
